X:1
T:The Gallowglass  "Arranged by Terry Tully"
M:6/8
L:1/8
Q:80
C:Traditional Irish
S:Jig
K:HP
|: ed | \
{gcecG}c2A{g}eBd | \
{g}c{d}A{e}A{g}Aed |
{gcecG}c2A{g}efg | \
{a}dB{d}G{g}GAB{gcecG}c2A{gdedc}d2B | \
{gcecG}c2A{g}edc |
{gde}dB{d}A{g}GAB | \
{g}c{d}A{e}A{g}A :: \
e |
a{g}a{g}aefd | \
{g}c{d}A{e}A{g}A{d}ce | \
{gcecG}c2A{g}A{d}ce |
{gde}dB{d}G|1 {g}G{d}ce|1 a{g}a{g}aefd | \
{g}c{d}A{e}A{g}edc | \
{gde}dB{d}A{g}GAB |
{g}c{d}A{e}A{g}A2 :|
